X:126
M:C
L:1/8
K:G
gfgb agfa|gef^d e/e/e g2:|
|:dB B/B/B dBBg|eBBA GEEg|dB B/B/B dBBa|gef^d e/e/e g2|
dB B/B/B dBBg|eBBA GEEF|dB B/B/B dBBa|gef^d e/e/e g2:||

